X: 1908
T: Admiral Nelson
P: Admiral Nelson
C:Niel Gow
R:Reel (4x64) ABABABAB
B:RSCDS 19-8
Z:Anselm Lingnau <anselm@strathspey.org>
M:4/4
L:1/8
K:F
   cB | "F"A2F2 FAGF | "C7"EGB2 BdcB | "F"Acde "Dm"fagf |"C7"e2c2 cd ||
   cB | "F"A2F2 FAGF | "C7"EGB2 BdcB | "F"Acdf "C7"ecdB | "F"A2"Bb"F2 "F"F2 |]
(3cde | "F"fcAc fagf | "C" gece gbag | "F"af"C"ge "G7"fdgf | "C"e2c2 c2 ||
   fe |"Bb"dcBA "Gm"B2gf | "C7"edcB "F"A2(3cde | "F/A"fc"Bb"dB "F/C"cA"C7"BG | "F"A2"Bb"F2 "F"F2 |]
%%center Book19/1908-Admiral_Nelson-AL.abc

%%sep 1 1 500
%%sep 1 1 500

